X: 188
T: Within A Mile Of Dublin
R: reel
M: 4/4
L: 1/8
K: Dmix
FG|AD DE FEFG|AD (3DDD c2 BG|AD DE FEFG|AdcA G2 :|
FG|Addc AGFG|Adde fded|Addc AGFG|ABcA G2 FG|
Addc AGFG|Adde f2 fg|af (3gfe fde^c|d^cAF G2 FG||

